svg/color/fira.svg

<?xml version="1.0" encoding="UTF-8" ?>
<!DOCTYPE svg PUBLIC "-//W3C//DTD SVG 1.1//EN" "http://www.w3.org/Graphics/SVG/1.1/DTD/svg11.dtd">
<svg width="250pt" height="250pt" viewBox="0 0 250 250" version="1.1" xmlns="http://www.w3.org/2000/svg">
<g id="#ffffffff">
<path fill="#ffffff" opacity="1.00" d=" M 0.00 0.00 L 116.59 0.00 C 86.41 1.79 57.03 15.26 35.94 36.94 C 20.68 52.22 9.72 71.68 4.30 92.56 C 2.64 98.29 1.97 104.28 0.00 109.93 L 0.00 0.00 Z" />
<path fill="#ffffff" opacity="1.00" d=" M 132.42 0.00 L 250.00 0.00 L 250.00 250.00 L 130.23 250.00 C 138.15 248.34 146.31 247.99 154.12 245.76 C 180.80 239.25 205.08 223.65 222.13 202.12 C 239.98 180.25 248.70 151.97 249.55 123.99 C 248.84 101.53 242.81 79.05 231.13 59.77 C 210.48 25.45 172.49 2.13 132.42 0.00 Z" />
<path fill="#ffffff" opacity="1.00" d=" M 106.30 81.22 C 112.31 73.98 118.18 66.62 124.26 59.44 C 126.12 61.00 127.83 62.73 129.33 64.65 C 139.60 77.64 150.42 90.18 160.78 103.09 C 148.86 132.10 136.59 160.96 124.69 189.98 C 118.12 175.72 112.77 160.93 106.50 146.54 C 100.63 131.99 94.12 117.71 88.54 103.04 C 94.13 95.50 100.58 88.66 106.30 81.22 Z" />
<path fill="#ffffff" opacity="1.00" d=" M 57.00 118.49 C 64.36 117.73 71.74 117.29 79.14 117.47 C 92.03 138.85 104.43 160.52 117.18 181.99 C 118.77 184.44 120.15 187.02 121.19 189.76 C 94.65 183.22 68.23 176.18 41.76 169.35 C 39.80 168.95 39.63 166.73 39.20 165.16 C 35.80 149.96 31.72 134.91 28.49 119.66 C 38.00 119.27 47.47 118.22 57.00 118.49 Z" />
<path fill="#ffffff" opacity="1.00" d=" M 135.36 176.39 C 146.96 156.80 158.35 137.08 169.99 117.51 C 175.97 117.53 181.99 117.28 187.93 118.15 C 194.91 118.95 201.97 118.16 208.95 118.94 C 212.82 119.44 216.73 119.48 220.63 119.64 C 220.13 122.61 219.51 125.56 218.75 128.48 C 215.38 141.44 212.77 154.59 209.33 167.53 C 208.94 169.12 207.01 169.41 205.70 169.86 C 179.77 176.40 153.96 183.46 127.97 189.76 C 129.77 184.96 132.76 180.77 135.36 176.39 Z" />
<path fill="#ffffff" opacity="1.00" d=" M 0.00 137.98 C 2.39 147.17 3.73 156.66 7.11 165.59 C 18.29 198.92 44.68 226.53 77.11 239.89 C 90.20 245.94 104.69 247.31 118.68 250.00 L 0.00 250.00 L 0.00 137.98 Z" />
</g>
<g id="#ff7900ff">
<path fill="#ff7900" opacity="1.00" d=" M 116.59 0.00 L 132.42 0.00 C 172.49 2.13 210.48 25.45 231.13 59.77 C 242.81 79.05 248.84 101.53 249.55 123.99 C 248.70 151.97 239.98 180.25 222.13 202.12 C 205.08 223.65 180.80 239.25 154.12 245.76 C 146.31 247.99 138.15 248.34 130.23 250.00 L 118.68 250.00 C 104.69 247.31 90.20 245.94 77.11 239.89 C 44.68 226.53 18.29 198.92 7.11 165.59 C 3.73 156.66 2.39 147.17 0.00 137.98 L 0.00 109.93 C 1.97 104.28 2.64 98.29 4.30 92.56 C 9.72 71.68 20.68 52.22 35.94 36.94 C 57.03 15.26 86.41 1.79 116.59 0.00 M 106.30 81.22 C 100.58 88.66 94.13 95.50 88.54 103.04 C 94.12 117.71 100.63 131.99 106.50 146.54 C 112.77 160.93 118.12 175.72 124.69 189.98 C 136.59 160.96 148.86 132.10 160.78 103.09 C 150.42 90.18 139.60 77.64 129.33 64.65 C 127.83 62.73 126.12 61.00 124.26 59.44 C 118.18 66.62 112.31 73.98 106.30 81.22 M 57.00 118.49 C 47.47 118.22 38.00 119.27 28.49 119.66 C 31.72 134.91 35.80 149.96 39.20 165.16 C 39.63 166.73 39.80 168.95 41.76 169.35 C 68.23 176.18 94.65 183.22 121.19 189.76 C 120.15 187.02 118.77 184.44 117.18 181.99 C 104.43 160.52 92.03 138.85 79.14 117.47 C 71.74 117.29 64.36 117.73 57.00 118.49 M 135.36 176.39 C 132.76 180.77 129.77 184.96 127.97 189.76 C 153.96 183.46 179.77 176.40 205.70 169.86 C 207.01 169.41 208.94 169.12 209.33 167.53 C 212.77 154.59 215.38 141.44 218.75 128.48 C 219.51 125.56 220.13 122.61 220.63 119.64 C 216.73 119.48 212.82 119.44 208.95 118.94 C 201.97 118.16 194.91 118.95 187.93 118.15 C 181.99 117.28 175.97 117.53 169.99 117.51 C 158.35 137.08 146.96 156.80 135.36 176.39 Z" />
</g>
</svg>

<?xml version="1.0" encoding="utf-8"?>
<!-- Generator: Adobe Illustrator 26.0.3, SVG Export Plug-In . SVG Version: 6.00 Build 0)  -->
<svg version="1.1" id="Layer_1" xmlns="http://www.w3.org/2000/svg" xmlns:xlink="http://www.w3.org/1999/xlink" x="0px" y="0px"
	 viewBox="0 0 250 250" style="enable-background:new 0 0 250 250;" xml:space="preserve">
<style type="text/css">
	.st0{fill:#FFFFFF;}
	.st1{fill:#FF7900;}
</style>
<g id="_x23_ffffffff">
	<path class="st0" d="M106.3,81.2c6-7.2,11.9-14.6,18-21.8c1.9,1.6,3.6,3.3,5.1,5.2c10.3,13,21.1,25.5,31.4,38.4
		c-11.9,29-24.2,57.9-36.1,86.9c-6.6-14.3-11.9-29.1-18.2-43.4c-5.9-14.5-12.4-28.8-18-43.5C94.1,95.5,100.6,88.7,106.3,81.2z"/>
	<path class="st0" d="M57,118.5c7.4-0.8,14.7-1.2,22.1-1c12.9,21.4,25.3,43.1,38,64.5c1.6,2.4,3,5,4,7.8
		c-26.5-6.5-53-13.6-79.4-20.4c-2-0.4-2.1-2.6-2.6-4.2c-3.4-15.2-7.5-30.2-10.7-45.5C38,119.3,47.5,118.2,57,118.5z"/>
	<path class="st0" d="M135.4,176.4c11.6-19.6,23-39.3,34.6-58.9c6,0,12-0.2,17.9,0.6c7,0.8,14,0,21,0.8c3.9,0.5,7.8,0.5,11.7,0.7
		c-0.5,3-1.1,5.9-1.9,8.8c-3.4,13-6,26.1-9.4,39.1c-0.4,1.6-2.3,1.9-3.6,2.3c-25.9,6.5-51.7,13.6-77.7,19.9
		C129.8,185,132.8,180.8,135.4,176.4z"/>
</g>
<g id="_x23_ff7900ff">
	<path class="st1" d="M116.6,0h15.8c40.1,2.1,78.1,25.5,98.7,59.8c11.7,19.3,17.7,41.8,18.4,64.2c-0.9,28-9.6,56.3-27.4,78.1
		c-17.1,21.5-41.3,37.1-68,43.6c-7.8,2.2-16,2.6-23.9,4.2h-11.5c-14-2.7-28.5-4.1-41.6-10.1c-32.4-13.4-58.8-41-70-74.3
		C3.7,156.7,2.4,147.2,0,138v-28c2-5.7,2.6-11.6,4.3-17.4c5.4-20.9,16.4-40.3,31.6-55.6C57,15.3,86.4,1.8,116.6,0 M106.3,81.2
		c-5.7,7.4-12.2,14.3-17.8,21.8c5.6,14.7,12.1,29,18,43.5c6.3,14.4,11.6,29.2,18.2,43.4c11.9-29,24.2-57.9,36.1-86.9
		c-10.4-12.9-21.2-25.4-31.4-38.4c-1.5-1.9-3.2-3.7-5.1-5.2C118.2,66.6,112.3,74,106.3,81.2 M57,118.5c-9.5-0.3-19,0.8-28.5,1.2
		c3.2,15.2,7.3,30.3,10.7,45.5c0.4,1.6,0.6,3.8,2.6,4.2c26.5,6.8,52.9,13.9,79.4,20.4c-1-2.7-2.4-5.3-4-7.8
		c-12.8-21.5-25.2-43.1-38-64.5C71.7,117.3,64.4,117.7,57,118.5 M135.4,176.4c-2.6,4.4-5.6,8.6-7.4,13.4c26-6.3,51.8-13.4,77.7-19.9
		c1.3-0.4,3.2-0.7,3.6-2.3c3.4-12.9,6.1-26.1,9.4-39.1c0.8-2.9,1.4-5.9,1.9-8.8c-3.9-0.2-7.8-0.2-11.7-0.7c-7-0.8-14,0-21-0.8
		c-5.9-0.9-12-0.6-17.9-0.6C158.4,137.1,147,156.8,135.4,176.4z"/>
</g>
</svg>
